X: 151115
T: The SERENADE POLKA
C: F. Lutte
R: Polka
%R: polka
B: James Kerr "Merry Melodies" v.1 p.51 s.1 #15
Z: 2016 John Chambers <jc:trillian.mit.edu>
M: 2/4
L: 1/16
K: C
|: (GF) |\
(EG)C2C2 (ed) | (ce)G2G2 (cB) |A2AG F2dc | B2g2g2 (GF) |\
(EG)C2C2 (ed) | (ce)G2G2 (cB) | A2(dc) B2(ed) | c2c2c2 H:: (cB) |\
A4 ^G2B2 | (A4 E)z Bc | d2d2 c3B | c6 cd |
e2e2e2 dc | (d4 G)z AB | cBAG ^F2d2 | G6 (cB) |\
A2A2 ^G3B | (A4 E)ABc | d2d2 c3B | c6 cd |\
e2e2e2 dc | B2e2 E2^F^G | ABcA B2e2 | "_D.C."A6 :| [K:F]\
"Trio"[|]\
C2 |\
F2F2F2 zA | F2F2F2 zE |
D2F2B2d2 | c6 c2 |\
c2B2B2 zc | B2A2A2 zA | G2G2=B2d2 | c6 C2 |\
F2F2F2 zA | F2F2F2 zE | D2F2B2d2 | c6 c2 |\
d2B2B2 zd | c2A2A2 zF | D2G2 FEDE "_D.C."F6 |]
